SVG_Azure_All/IoT Hub Message Routing.svg

<?xml version="1.0" encoding="UTF-8" standalone="no"?>
<!-- Generated by Microsoft Visio, SVG Export IoT Hub Message Routing.svg Page-1 -->

<svg
   xmlns:dc="http://purl.org/dc/elements/1.1/"
   xmlns:cc="http://creativecommons.org/ns#"
   xmlns:rdf="http://www.w3.org/1999/02/22-rdf-syntax-ns#"
   xmlns:svg="http://www.w3.org/2000/svg"
   xmlns="http://www.w3.org/2000/svg"
   xmlns:sodipodi="http://sodipodi.sourceforge.net/DTD/sodipodi-0.dtd"
   xmlns:inkscape="http://www.inkscape.org/namespaces/inkscape"
   width="0.76728177in"
   height="0.78028268in"
   viewBox="0 0 55.244274 56.180242"
   xml:space="preserve"
   class="st2"
   version="1.1"
   id="svg34"
   sodipodi:docname="IoT Hub Message Routing.svg"
   style="font-size:12px;overflow:visible;color-interpolation-filters:sRGB;fill:none;fill-rule:evenodd;stroke-linecap:square;stroke-miterlimit:3"
   inkscape:version="0.92.5 (2060ec1f9f, 2020-04-08)"><metadata
   id="metadata40"><rdf:RDF><cc:Work
       rdf:about=""><dc:format>image/svg+xml</dc:format><dc:type
         rdf:resource="http://purl.org/dc/dcmitype/StillImage" /></cc:Work></rdf:RDF></metadata><defs
   id="defs38" /><sodipodi:namedview
   pagecolor="#ffffff"
   bordercolor="#666666"
   borderopacity="1"
   objecttolerance="10"
   gridtolerance="10"
   guidetolerance="10"
   inkscape:pageopacity="0"
   inkscape:pageshadow="2"
   inkscape:window-width="640"
   inkscape:window-height="480"
   id="namedview36"
   showgrid="false"
   inkscape:zoom="1.7317085"
   inkscape:cx="36.832052"
   inkscape:cy="23.091673"
   inkscape:window-x="0"
   inkscape:window-y="0"
   inkscape:window-maximized="0"
   inkscape:current-layer="svg34" />
	<style
   type="text/css"
   id="style2">
	<![CDATA[
		.st1 {fill:#3999c6;stroke:none;stroke-linecap:butt;stroke-width:12.24}
		.st2 {fill:none;fill-rule:evenodd;font-size:12px;overflow:visible;stroke-linecap:square;stroke-miterlimit:3}
	]]>
	</style>

	<g
   id="g32"
   transform="translate(-12.237317,-12.244001)">
		<title
   id="title4">Page-1</title>
		<g
   id="group3859-1"
   transform="translate(11.5149,-34.0157)">
			<title
   id="title6">IoT Hub Message Routing</title>
			<g
   id="group3860-2">
				<title
   id="title8">Sheet.3860</title>
				<g
   id="shape3861-3"
   transform="translate(15.2597,-14.5492)">
					<title
   id="title10">Sheet.3861</title>
					<path
   d="M 0,99.77 28.3,70.98 30.7,73.43 2.4,102.21 Z"
   class="st1"
   id="path12"
   inkscape:connector-curvature="0"
   style="fill:#3999c6;stroke:none;stroke-width:12.23999977;stroke-linecap:butt" />
				</g>
				<g
   id="shape3862-5"
   transform="translate(5.76766,-15.3125)">
					<title
   id="title15">Sheet.3862</title>
					<path
   d="m 43.72,77.77 a 6.67555,6.78984 -180 0 0 0,-9.61 6.67555,6.78984 -180 0 0 -9.45,0 6.67555,6.78984 -180 0 0 0,9.61 6.67555,6.78984 -180 0 0 9.45,0 z M 0,68.82 3.27,67.9 l 9.06,33.39 -3.27,0.92 z"
   class="st1"
   id="path17"
   inkscape:connector-curvature="0"
   style="fill:#3999c6;stroke:none;stroke-width:12.23999977;stroke-linecap:butt" />
				</g>
				<g
   id="shape3863-7"
   transform="translate(0,-4.89693)">
					<title
   id="title20">Sheet.3863</title>
					<path
   d="M 13.85,56.19 C 12.9,52.56 9.24,50.42 5.68,51.39 2.11,52.36 0,56.08 0.95,59.7 c 0.96,3.63 4.62,5.78 8.18,4.81 a 6.67442,6.78869 -180 0 0 4.72,-8.32 z m 2.16,36.81 0.9,-3.33 32.83,9.21 -0.9,3.33 z"
   class="st1"
   id="path22"
   inkscape:connector-curvature="0"
   style="fill:#3999c6;stroke:none;stroke-width:12.23999977;stroke-linecap:butt" />
				</g>
				<g
   id="shape3864-9"
   transform="translate(6.64498)">
					<title
   id="title25">Sheet.3864</title>
					<path
   d="m 40.92,102.21 a 6.67555,6.78984 -180 0 0 8.17,-4.8 c 0.96,-3.63 -1.15,-7.35 -4.72,-8.32 -3.56,-0.97 -7.22,1.18 -8.18,4.8 a 6.67668,6.79099 -180 0 0 4.73,8.32 z M 16.14,92.87 c 3.49,-3.55 3.49,-9.31 0,-12.86 -3.49,-3.55 -9.15,-3.55 -12.65,0 -3.49,3.55 -3.49,9.31 0,12.86 3.5,3.56 9.16,3.55 12.65,0 z"
   class="st1"
   id="path27"
   inkscape:connector-curvature="0"
   style="fill:#3999c6;stroke:none;stroke-width:12.23999977;stroke-linecap:butt" />
				</g>
			</g>
		</g>
	</g>
</svg>

<?xml version="1.0" encoding="UTF-8" standalone="no"?>
<!DOCTYPE svg PUBLIC "-//W3C//DTD SVG 1.1//EN" "http://www.w3.org/Graphics/SVG/1.1/DTD/svg11.dtd">
<!-- Generated by Microsoft Visio, SVG Export IoT Hub Message Routing.svg Page-1 -->
<svg xmlns="http://www.w3.org/2000/svg" xmlns:xlink="http://www.w3.org/1999/xlink" xmlns:ev="http://www.w3.org/2001/xml-events"
		width="1.10726in" height="1.4196in" viewBox="0 0 79.7227 102.211" xml:space="preserve" color-interpolation-filters="sRGB"
		class="st2">
	<style type="text/css">
	<![CDATA[
		.st1 {fill:#3999c6;stroke:none;stroke-linecap:butt;stroke-width:12.24}
		.st2 {fill:none;fill-rule:evenodd;font-size:12px;overflow:visible;stroke-linecap:square;stroke-miterlimit:3}
	]]>
	</style>

	<g>
		<title>Page-1</title>
		<g id="group3775-1" transform="translate(11.5149,-34.0157)">
			<title>IoT Hub Message Routing</title>
			<g id="group3776-2">
				<title>Sheet.3776</title>
				<g id="shape3777-3" transform="translate(15.2597,-14.5492)">
					<title>Sheet.3777</title>
					<path d="M0 99.77 L28.3 70.98 L30.7 73.43 L2.4 102.21 L0 99.77 Z" class="st1"/>
				</g>
				<g id="shape3778-5" transform="translate(5.76766,-15.3125)">
					<title>Sheet.3778</title>
					<path d="M43.72 77.77 A6.67555 6.78984 -180 0 0 43.72 68.16 A6.67555 6.78984 -180 0 0 34.27 68.16 A6.67555 6.78984
								 -180 0 0 34.27 77.77 A6.67555 6.78984 -180 0 0 43.72 77.77 ZM0 68.82 L3.27 67.9 L12.33 101.29 L9.06
								 102.21 L0 68.82 Z" class="st1"/>
				</g>
				<g id="shape3779-7" transform="translate(0,-4.89693)">
					<title>Sheet.3779</title>
					<path d="M13.85 56.19 C12.9 52.56 9.24 50.42 5.68 51.39 C2.11 52.36 0 56.08 0.95 59.7 C1.91 63.33 5.57 65.48
								 9.13 64.51 A6.67442 6.78869 -180 0 0 13.85 56.19 ZM16.01 93 L16.91 89.67 L49.74 98.88 L48.84 102.21
								 L16.01 93 Z" class="st1"/>
				</g>
				<g id="shape3780-9" transform="translate(6.64498,2.84217E-13)">
					<title>Sheet.3780</title>
					<path d="M40.92 102.21 A6.67555 6.78984 -180 0 0 49.09 97.41 C50.05 93.78 47.94 90.06 44.37 89.09 C40.81 88.12
								 37.15 90.27 36.19 93.89 A6.67668 6.79099 -180 0 0 40.92 102.21 ZM16.14 92.87 C19.63 89.32 19.63
								 83.56 16.14 80.01 C12.65 76.46 6.99 76.46 3.49 80.01 C0 83.56 0 89.32 3.49 92.87 C6.99 96.43 12.65
								 96.42 16.14 92.87 Z" class="st1"/>
				</g>
			</g>
		</g>
	</g>
</svg>
